X:585
T:Winston in the 50's
M:4/4
L:1/8
K:GMix
BGdG eGdG|AGFG AFFA|BGdG eGdG|cA^FA BGGc :|
BG (3GGG G2 GG|BGDG AFFA|BG (3GGG BGDG|cA^FA BGGc|
BG (3GGG BGDG|BGDG AFFA|cABG AGEc|1 BAGA BGGc :|2 BAGA BGGE |>|
